img/logos/bash.svg

<?xml version="1.0" encoding="UTF-8" standalone="no" ?>
<svg width="256px" height="190px" viewBox="0 0 256 190" version="1.1" xmlns="http://www.w3.org/2000/svg" xmlns:xlink="http://www.w3.org/1999/xlink" preserveAspectRatio="xMinYMin meet">
    <g>
        <rect fill="#000000" x="0" y="0" width="256" height="189.071895"></rect>
        <path d="M49.6383442,110.152505 L49.6383442,79.4771242 L19.2418301,79.4771242 L19.2418301,47.6862745 L49.6383442,47.6862745 L49.6383442,16.7320261 L81.4291939,16.7320261 L81.4291939,47.6862745 L111.546841,47.6862745 L111.546841,16.7320261 L143.337691,16.7320261 L143.337691,47.6862745 L174.291939,47.6862745 L174.291939,79.4771242 L143.337691,79.4771242 L143.337691,110.152505 L174.291939,110.152505 L174.291939,141.943355 L143.337691,141.943355 L143.337691,171.782135 L111.546841,171.782135 L111.546841,141.943355 L81.4291939,141.943355 L81.4291939,171.782135 L49.6383442,171.782135 L49.6383442,141.943355 L19.2418301,141.943355 L19.2418301,110.152505 L49.6383442,110.152505 L49.6383442,110.152505 Z M81.4291939,110.152505 L81.4291939,79.4771242 L111.546841,79.4771242 L111.546841,110.152505 L81.4291939,110.152505 L81.4291939,110.152505 Z" fill="#FFFFFF"></path>
        <rect fill="#FFFFFF" x="204.96732" y="16.7320261" width="31.7908497" height="93.4204793"></rect>
        <rect fill="#FFFFFF" x="204.96732" y="141.943355" width="31.7908497" height="29.83878"></rect>
    </g>
</svg>

<svg width="256" height="190" viewBox="0 0 256 190" xmlns="http://www.w3.org/2000/svg" preserveAspectRatio="xMinYMin meet"><path d="M0 0h256v189.072H0z"/><path d="M49.638 110.153V79.477H19.242v-31.79h30.396V16.73h31.79v30.954h30.12V16.732h31.79v30.954h30.954v31.79h-30.954v30.677h30.954v31.79h-30.954v29.84h-31.79v-29.84h-30.12v29.84H49.64v-29.84H19.242v-31.79h30.396zm31.79 0V79.477h30.12v30.676h-30.12zM204.967 16.732h31.79v93.42h-31.79zM204.967 141.943h31.79v29.84h-31.79z" fill="#FFF"/></svg>
